X:1
T: Green Fields of Erin
C:
R:Reel
Q: 232
K:Am
M:4/4
L:1/8
|:A2 ^cA eA cA|BG Bd ge dB|A2 ^cA eA cA|BG E^F GA BG|
A2 ^cA eA cA|BG Bd ge dB|A2 ^cA eA cA|BG E^F GA Bd|
ea ag ea ag|e^f gf ef gf|ea ag ea ag|eg ^fa ge dB|
ea ab c'a bg|eg ^fa gf ge|de ga bg a^f|eg ^fa ge A2:|
